X: 38
T: Fumu zhuhuen bu yuanyi
L: 1/8
M: 2/4
K: F
d/ d/ da2- [I:setbarnb 1]| 
a g/ a/ g f/ d/ | 
c A d g/ c/ | 
A4 | 
d/ d/ da2- | 
a g/ a/ g f/ d/ | 
c A d a | 
d4 |]

@@@ Tune index: 8912
